!!! OTL: Berkowitz578
!!! Chapter: 1
!!! Section: V
!!! Page: 156
!!! Mode: 
!!! Encoder: CD
**kern
*staff1
*clefF4
*k[]
*C:
*M4/4
4C/
=1
4.E\
8G\
4B-\
4G\
=2
4B-\
4F#\
4C#/
8F#\L
8A#\J
=3
*M2/4
4c#\
4e\
=4
*M3/4
4r
4E\
4C#/
=5
!!linebreak:original
*M4/4
4E\
8C#\L
8E\J
4A\
4c#\
=6
4d-\
[4B-\
8B-\L]
8G\J
4E-\
=7
*M3/4
4B-\
8G\L
8E\J
4C/
=8
4.D-\
8E-\
4C/
=9
*M3/2
4.A\
8G\
4.F#\
8F-\
4.E-\
8D-\
=10
!!linebreak:original
*M4/4
1C
==
*-
